X: 34355
T: Return To Miltown, The
R: reel
M: 4/4
K: Edorian
|:E2 GE BEGE|DF F2 DFAF|E2 GE BEGE|DEFA dAFD|
E2 GE BEGE|DF F2 DFAF|G3 E F3 E|1 DEFA dAFD:|2 DEFA dAFA||
|:e3 f g2 fe|defg a2 gf|edef g2 fe|dBAF FE E2|
e3 f g2 fe|defg a3 f|g3e fgfe|dBAF FE E2:|

